X:1
T:Sarum, 10.10.10.8
T:Sarum, 10.10.10.8
T:Joseph Barnby, 1868
T:Public Domain Courtesy of the Cyber Hymnal™
C:Joseph Barnby, 1868
Z:Public Domain
Z:Courtesy of the Cyber Hymnal™
%%score ( 1 2 ) ( 3 4 )
L:1/8
M:4/4
K:Eb
V:1 treble 
V:2 treble 
V:3 bass 
V:4 bass 
V:1
 [GB]4 [EG]2 [FA]2 | [GB]4 [GB]4 x2 | [Ac]2 [Ac]2 [Ac]2 [Ac]2 | c4 B4 | [GB]4 [Ge]2 [Ge]2 | %5
 [^Fd]2 [Dc]2 [DB]2 =AG | [DF]4 [Ec]4 | [DB]8 | [DB]4 [DF]2 [DG]2 | [DF]4 E4 | %10
 [_DB]2 [DB]2 [Dc]2 [DB]2 | [CA]4!f! [DG]3 [DF] | [EB]8 | E4!f! [CA]3 [CG] | [DF]8 | E8 |] %16
V:2
 x8 | x10 | x8 | A8 | x8 | x6 C2 | x8 | x8 | x8 | x4 E4 | x8 | x8 | x8 | E4 x4 | x8 | E8 |] %16
V:3
 [E,B,]4 [E,B,]2 [E,B,]2 | E6 z2 D2 | [A,,C]2 [B,,D]2 [C,E]2 [A,,C]2 | [D,F]8 | %4
 [E,B,]4 [C,C]2 [C,C]2 | [D,=A,]2 [^F,A,]2 [G,B,]2 [=E,B,]2 | [F,B,]4 [F,=A,]4 | [B,,B,]8 | %8
 [A,B,]4 [A,B,]2 [A,B,]2 | [A,B,]4 [G,B,]4 | [E,G,]2 [E,G,]2 [E,F,]2 [E,G,]2 | %11
 [A,,A,]4 [A,B,]3 [A,B,] | [G,B,]8 | [C,C]4 [F,C]3 [F,B,] | [B,,A,]8 | [E,G,]8 |] %16
V:4
 x8 | E,4 E,4 x2 | x8 | x8 | x8 | x8 | x8 | x8 | x8 | x8 | x8 | x8 | x8 | x8 | x8 | x8 |] %16

